Newaita/actions/16/resource-group-new.svg

<svg height="16" viewBox="0 0 16 16" width="16" xmlns="http://www.w3.org/2000/svg"><g fill="#424242"><path d="m10.25 4.425781c1.28125 0 2.316406 1.03125 2.316406 2.316407 0 1.28125-1.035156 2.3125-2.316406 2.3125s-2.316406-1.03125-2.316406-2.3125c0-1.285157 1.035156-2.316407 2.316406-2.316407zm0 1.320313c-.550781 0-.992188.445312-.992188.996094 0 .546874.441407.992187.992188.992187s.992188-.445313.992188-.992187c0-.550782-.441407-.996094-.992188-.996094zm0 0"/><path d="m13.558594 11.039062c.550781 0 .992187.445313.992187.992188v1.65625c0 .546875-.441406.992188-.992187.992188h-6.617188c-.546875 0-.992187-.445313-.992187-.992188v-1.65625c0-.546875.445312-.992188.992187-.992188h.332032v1.984376c0 .183593.148437.332031.332031.332031h5.292969c.179687 0 .328124-.148438.328124-.332031v-1.984376zm0 0"/><path d="m11.902344 9.390625c.441406 0 .976562.089844 1.488281.292969.253906.101562.503906.234375.726563.4375.222656.207031.429687.535156.429687.917968v.992188c.003906.238281-.121094.460938-.324219.578125-.207031.121094-.460937.121094-.664062 0-.207032-.117187-.332032-.339844-.328125-.578125v-.9375c-.003907-.003906 0 0-.003907-.003906-.046874-.042969-.167968-.121094-.328124-.183594-.269532-.105469-.632813-.175781-.875-.191406-1.296876.597656-2.527344.621094-3.59375.003906-.242188.023438-.578126.089844-.828126.1875-.160156.0625-.28125.140625-.324218.183594-.007813.003906-.003906 0-.007813.003906v.9375c.003907.238281-.121093.460938-.324219.578125-.207031.121094-.460937.121094-.664062 0-.207031-.117187-.332031-.339844-.328125-.578125v-.992188c0-.382812.207031-.710937.429687-.917968.222657-.203125.472657-.335938.730469-.4375.511719-.203125 1.042969-.292969 1.484375-.292969.128906 0 .257813.039063.363282.109375.824218.550781 1.445312.5625 2.648437-.042969.09375-.042969.191406-.066406.292969-.066406zm0 0"/><path d="m5.621094 1.449219c1.28125 0 2.3125 1.03125 2.3125 2.3125 0 1.285156-1.03125 2.316406-2.3125 2.316406-1.285156 0-2.316406-1.03125-2.316406-2.316406 0-1.28125 1.03125-2.3125 2.316406-2.3125zm0 1.320312c-.550782 0-.992188.445313-.992188.992188 0 .550781.441406.992187.992188.992187.546875 0 .992187-.441406.992187-.992187 0-.546875-.445312-.992188-.992187-.992188zm0 0"/><path d="m3.964844 6.414062c.132812 0 .257812.035157.367187.109376.8125.542968 1.429688.5625 2.609375-.023438v1.425781c-1.128906.40625-2.199218.363281-3.144531-.183593-.238281.023437-.578125.089843-.828125.1875-.15625.0625-.277344.140624-.324219.183593v1.933594c0 .183594.144531.332031.328125.332031h1.984375v1.324219h-2.644531c-.550781 0-.992188-.445313-.992188-.992187v-1.65625c0-.027344 0-.050782.003907-.078126v-.914062c0-.382812.203125-.710938.425781-.917969.226562-.203125.476562-.335937.730469-.4375.511719-.203125 1.046875-.292969 1.484375-.292969zm0 0"/></g></svg>

<svg xmlns="http://www.w3.org/2000/svg" xmlns:xlink="http://www.w3.org/1999/xlink" width="16px" height="16px" viewBox="0 0 16 16" version="1.1">
<g id="surface1">
     <defs>
  <style id="current-color-scheme" type="text/css">
   .ColorScheme-Text { color:#424242; } .ColorScheme-Highlight { color:#eeeeee; }
  </style>
 </defs>
<path style="fill:currentColor" class="ColorScheme-Text" d="M 10.25 4.425781 C 11.53125 4.425781 12.566406 5.457031 12.566406 6.742188 C 12.566406 8.023438 11.53125 9.054688 10.25 9.054688 C 8.96875 9.054688 7.933594 8.023438 7.933594 6.742188 C 7.933594 5.457031 8.96875 4.425781 10.25 4.425781 Z M 10.25 5.746094 C 9.699219 5.746094 9.257812 6.191406 9.257812 6.742188 C 9.257812 7.289062 9.699219 7.734375 10.25 7.734375 C 10.800781 7.734375 11.242188 7.289062 11.242188 6.742188 C 11.242188 6.191406 10.800781 5.746094 10.25 5.746094 Z M 10.25 5.746094 "/>
     <defs>
  <style id="current-color-scheme" type="text/css">
   .ColorScheme-Text { color:#424242; } .ColorScheme-Highlight { color:#eeeeee; }
  </style>
 </defs>
<path style="fill:currentColor" class="ColorScheme-Text" d="M 13.558594 11.039062 C 14.109375 11.039062 14.550781 11.484375 14.550781 12.03125 L 14.550781 13.6875 C 14.550781 14.234375 14.109375 14.679688 13.558594 14.679688 L 6.941406 14.679688 C 6.394531 14.679688 5.949219 14.234375 5.949219 13.6875 L 5.949219 12.03125 C 5.949219 11.484375 6.394531 11.039062 6.941406 11.039062 L 7.273438 11.039062 L 7.273438 13.023438 C 7.273438 13.207031 7.421875 13.355469 7.605469 13.355469 L 12.898438 13.355469 C 13.078125 13.355469 13.226562 13.207031 13.226562 13.023438 L 13.226562 11.039062 Z M 13.558594 11.039062 "/>
     <defs>
  <style id="current-color-scheme" type="text/css">
   .ColorScheme-Text { color:#424242; } .ColorScheme-Highlight { color:#eeeeee; }
  </style>
 </defs>
<path style="fill:currentColor" class="ColorScheme-Text" d="M 11.902344 9.390625 C 12.34375 9.390625 12.878906 9.480469 13.390625 9.683594 C 13.644531 9.785156 13.894531 9.917969 14.117188 10.121094 C 14.339844 10.328125 14.546875 10.65625 14.546875 11.039062 L 14.546875 12.03125 C 14.550781 12.269531 14.425781 12.492188 14.222656 12.609375 C 14.015625 12.730469 13.761719 12.730469 13.558594 12.609375 C 13.351562 12.492188 13.226562 12.269531 13.230469 12.03125 L 13.230469 11.09375 C 13.226562 11.089844 13.230469 11.09375 13.226562 11.089844 C 13.179688 11.046875 13.058594 10.96875 12.898438 10.90625 C 12.628906 10.800781 12.265625 10.730469 12.023438 10.714844 C 10.726562 11.3125 9.496094 11.335938 8.429688 10.71875 C 8.1875 10.742188 7.851562 10.808594 7.601562 10.90625 C 7.441406 10.96875 7.320312 11.046875 7.277344 11.089844 C 7.269531 11.09375 7.273438 11.089844 7.269531 11.09375 L 7.269531 12.03125 C 7.273438 12.269531 7.148438 12.492188 6.945312 12.609375 C 6.738281 12.730469 6.484375 12.730469 6.28125 12.609375 C 6.074219 12.492188 5.949219 12.269531 5.953125 12.03125 L 5.953125 11.039062 C 5.953125 10.65625 6.160156 10.328125 6.382812 10.121094 C 6.605469 9.917969 6.855469 9.785156 7.113281 9.683594 C 7.625 9.480469 8.15625 9.390625 8.597656 9.390625 C 8.726562 9.390625 8.855469 9.429688 8.960938 9.5 C 9.785156 10.050781 10.40625 10.0625 11.609375 9.457031 C 11.703125 9.414062 11.800781 9.390625 11.902344 9.390625 Z M 11.902344 9.390625 "/>
     <defs>
  <style id="current-color-scheme" type="text/css">
   .ColorScheme-Text { color:#424242; } .ColorScheme-Highlight { color:#eeeeee; }
  </style>
 </defs>
<path style="fill:currentColor" class="ColorScheme-Text" d="M 5.621094 1.449219 C 6.902344 1.449219 7.933594 2.480469 7.933594 3.761719 C 7.933594 5.046875 6.902344 6.078125 5.621094 6.078125 C 4.335938 6.078125 3.304688 5.046875 3.304688 3.761719 C 3.304688 2.480469 4.335938 1.449219 5.621094 1.449219 Z M 5.621094 2.769531 C 5.070312 2.769531 4.628906 3.214844 4.628906 3.761719 C 4.628906 4.3125 5.070312 4.753906 5.621094 4.753906 C 6.167969 4.753906 6.613281 4.3125 6.613281 3.761719 C 6.613281 3.214844 6.167969 2.769531 5.621094 2.769531 Z M 5.621094 2.769531 "/>
     <defs>
  <style id="current-color-scheme" type="text/css">
   .ColorScheme-Text { color:#424242; } .ColorScheme-Highlight { color:#eeeeee; }
  </style>
 </defs>
<path style="fill:currentColor" class="ColorScheme-Text" d="M 3.964844 6.414062 C 4.097656 6.414062 4.222656 6.449219 4.332031 6.523438 C 5.144531 7.066406 5.761719 7.085938 6.941406 6.5 L 6.941406 7.925781 C 5.8125 8.332031 4.742188 8.289062 3.796875 7.742188 C 3.558594 7.765625 3.21875 7.832031 2.96875 7.929688 C 2.8125 7.992188 2.691406 8.070312 2.644531 8.113281 L 2.644531 10.046875 C 2.644531 10.230469 2.789062 10.378906 2.972656 10.378906 L 4.957031 10.378906 L 4.957031 11.703125 L 2.3125 11.703125 C 1.761719 11.703125 1.320312 11.257812 1.320312 10.710938 L 1.320312 9.054688 C 1.320312 9.027344 1.320312 9.003906 1.324219 8.976562 L 1.324219 8.0625 C 1.324219 7.679688 1.527344 7.351562 1.75 7.144531 C 1.976562 6.941406 2.226562 6.808594 2.480469 6.707031 C 2.992188 6.503906 3.527344 6.414062 3.964844 6.414062 Z M 3.964844 6.414062 "/>
</g>
</svg>
